X: 1
T: Morse Avenue
R: reel
M: 4/4
L: 1/8
K: Dmaj
(3ABc|:dA (3AAA BAFD|EDFA BAFA|BF (3FFF BFBd|B3 c defe|
dA (3AAA BAFD|EDFA BAFA|dA (3AAA BAFA|1 AFEF DABc:|2 AFAB d3 c||
dffe fedf|a2 fd edBA|dffe fede|
[1 faab aefe|fdde fedf|a2 fd edBe|dA (3AAA BAFA|AFAB d3 c:|
[2 faab aefa|b2 af a2 fe|fedf edBe|dA A2 BAFA|AFEF DABc||"final" AFEF D4||

